!!!OTL: A bissel sikkarisch, a bissl sakrisch, a bissl nobel muess ma thoa
!!!ARE: Europa, Mitteleuropa, Oesterreich, Tirol
!!!SCT: D0297
!!!YEM: Copyright 1995, estate of Helmut Schaffrath.
**kern
*ICvox
*Ivox
!! Irregular meter.
*MX
*k[f#]
*G:
=1
{4d
4b
4g
=2
4f#
4a
4.dd
8d
8cc
8f#
=3
8g
8g
8r}
{8g
8f#
8e
=4
8d
8d
4r
8c
8e
=5
4.dd}
{8d
8b
8g
=6
8f#
8a
8dd
8dd
4r
8ff#
8f#
=7
8g
8g
8g
8g
4r}
{8f#
8e
=8
8d
8cc
4e
8f#
8d
=9
4.g}
{8d
8b
8g
=10
8f#
8a
8dd
8dd
4r
8ff#
8f#
=11
8g
8g
8g
8g
4r}
{8f#
8e
=12
8d
8cc
4e
8f#
8d
=13
4.g}
{2.d
=14
2.e
=15
2.f#
=16
8g
8dd
8b
8g
8dd
8g
=17
8a
8ee
8cc
8a
4ee}
{8f#
8dd
8cc
8f#
8dd
8g
=18
8g
8gg
8dd
8b
4g}
{8g
8dd
8b
8g
8dd
8g
=19
8a
8ee
8cc
8a
4ee}
{4.ff#
8ee
8dd
8f#
=20
2.g}
==
!!!AGN: Jodel - Lied
!! Sonderzeichen in der Notation (Glissando)
!!!ONB: ESAC (Essen Associative Code) Database: DVA
!!!AMT: irregular
!!!AIN: vox
!!!EED: Helmut Schaffrath
!!!EEV: 1.0
*-
